X:162
T:Lads a'Bunchum - Adderbury
M:4/4
L:1/8
K:G
A2 | B3 c Bcde | c2 A2 A2 Bc | d2 d2 dcBA | B2 G2 G2 :||
gf | e2 d2 d2 GA | B2 B2 B2 gf | e2 d2 c2 B2 | A2 G2 G2 gf |
e2 d2 d2 GA | B2 B2 B2 gf | e2 d2 c2 B2 | A2 G2 G2 ||
